public/images/icons/editor/table.svg

<svg xmlns="http://www.w3.org/2000/svg" height="13" viewBox="0 0 20.3 16"><path d="M19.1 16H1.2A1.2 1.2 0 0 1 0 14.8V1.2A1.2 1.2 0 0 1 1.2 0h17.9a1.2 1.2 0 0 1 1.2 1.2v13.6a1.2 1.2 0 0 1-1.2 1.2zm-5.2-4.3v3.2h5.3v-3.2zm-6.4 0v3.2h5.3v-3.2zm-6.4 0v3.2h5.3v-3.2zm12.8-4.2v3.2h5.3V7.5zm-6.4 0v3.2h5.3V7.5zm-6.4 0v3.2h5.3V7.5zm12.8-4.3v3.2h5.3V3.2zm-6.4 0v3.2h5.3V3.2zm-6.4 0v3.2h5.3V3.2z"/></svg>

<svg xmlns="http://www.w3.org/2000/svg" height="13" viewBox="0 0 20.3 16">
    <path d="M19.1,16H1.2A1.2,1.2,0,0,1,0,14.8V1.2A1.2,1.2,0,0,1,1.2,0H19.1a1.2,1.2,0,0,1,1.2,1.2V14.8A1.2,1.2,0,0,1,19.1,16Zm-5.2-4.3v3.2h5.3V11.7Zm-6.4,0v3.2h5.3V11.7Zm-6.4,0v3.2H6.4V11.7ZM13.9,7.5v3.2h5.3V7.5Zm-6.4,0v3.2h5.3V7.5Zm-6.4,0v3.2H6.4V7.5ZM13.9,3.2V6.4h5.3V3.2Zm-6.4,0V6.4h5.3V3.2Zm-6.4,0V6.4H6.4V3.2Z"/>
</svg>
